X:37
T:[untitled]
N:Anon
N:(pretty)
Z:Jack Campin - http://www.campin.me.uk
S:Blaikie MS (NLS MS.1578) p13
N:Blaikie #36
M:C
L:1/8
Q:1/4=80
V:1 midi program 1 74
V:2 midi program 1 46 bass middle = d transpose -24
K:G Dorian
[V:1] A2|d2d2 defd|dcAG F2GA|B2cB A2GF|D2G2 G2:|
[V:2] z2|d2d2 f2d2|d2d2 d2z2|g2z2 d2z2|g2G2 G2:|
%
[V:1] A2|B2G2 A2GF|D2G2 G2e2|f2d2 e2dc|A2d2 d2
[V:2] z2|g2z2 d2z2|g2g2 g2z2|f2f2 b2z2|d2d2 d2
%
[V:1] de|f2d2 e2c2|dcAG F2GA|B2G2 A2GF|D2G2 G2|]
[V:2] z2|d2z2 c2e2|f2f2 f2z2|g2z2 d2z2|g2G2 G2|]

W:Transcription (c) Jack Campin 2009, no mirroring or republication without permission

